src/22/actions/labplot-zoom-out-y.svg

<svg xmlns="http://www.w3.org/2000/svg" viewBox="0 0 22 22">
  <defs id="defs3051">
    <style type="text/css" id="current-color-scheme">
      .ColorScheme-Text {
        color:#5d656b;
      }
      </style>
  </defs>
 <path 
     style="fill:currentColor;fill-opacity:1;stroke:none" 
     d="M 3 3 L 3 5 L 4 5 L 4 4 L 5 4 L 5 3 L 3 3 z M 7 3 L 7 4 L 8 4 L 8 5 L 9 5 L 9 3 L 7 3 z M 12 3 L 12 4 L 18 4 L 18 10 L 19 10 L 19 4 L 19 3 L 12 3 z M 3 7 L 3 9 L 5 9 L 5 8 L 4 8 L 4 7 L 3 7 z M 8 7 L 8 8 L 7 8 L 7 9 L 9 9 L 9 7 L 8 7 z M 3 12 L 3 19 L 4 19 L 10 19 L 10 18 L 4 18 L 4 12 L 3 12 z M 14.998047 12.429688 L 14.998047 17.085938 L 13.376953 15.464844 L 12.669922 16.171875 L 14.791016 18.292969 L 15.498047 19 L 18.328125 16.171875 L 17.621094 15.464844 L 15.998047 17.085938 L 15.998047 12.429688 L 14.998047 12.429688 z "
     class="ColorScheme-Text"
     />
</svg>

<svg xmlns="http://www.w3.org/2000/svg" viewBox="0 0 22 22"><path d="M3 3v2h1V4h1V3H3zm4 0v1h1v1h1V3H7zm5 0v1h6v6h1V3h-7zM3 7v2h2V8H4V7H3zm5 0v1H7v1h2V7H8zm-5 5v7h7v-1H4v-6H3zm11.998.43v4.656l-1.621-1.621-.707.707 2.121 2.121.707.707 2.83-2.828-.707-.707-1.623 1.62V12.43h-1z" fill="currentColor" color="#5d656b"/></svg>
